img/twitter.svg

<svg width="32" height="29" viewBox="0 0 32 29" fill="none" xmlns="http://www.w3.org/2000/svg">
<path fill-rule="evenodd" clip-rule="evenodd" d="M27.8068 5.1851C29.111 5.01446 30.3496 4.65309 31.4943 4.10102C30.631 5.47619 29.5426 6.69075 28.2853 7.66441C28.2947 7.95551 28.3041 8.25664 28.3041 8.55778C28.3041 17.6419 21.8393 28.1213 10.017 28.1213C6.38584 28.1213 3.00803 26.9871 0.165039 25.0297C0.671711 25.0899 1.17838 25.12 1.69444 25.12C4.70632 25.12 7.47425 24.0159 9.67921 22.179C6.86437 22.1188 4.49052 20.1313 3.67421 17.401C4.06829 17.4813 4.47175 17.5215 4.8846 17.5215C5.47571 17.5215 6.03868 17.4412 6.58289 17.2806C3.64607 16.6482 1.42234 13.8677 1.42234 10.5352C1.42234 10.5051 1.42234 10.475 1.42234 10.4449C2.28556 10.9568 3.28014 11.268 4.33101 11.3081C2.60457 10.0735 1.46925 7.96555 1.46925 5.58661C1.46925 4.33189 1.78827 3.14744 2.34185 2.13362C5.51324 6.29928 10.2516 9.02955 15.5904 9.32064C15.4778 8.81875 15.4215 8.29679 15.4215 7.75476C15.4215 3.96049 18.302 0.878906 21.8487 0.878906C23.6971 0.878906 25.3673 1.71204 26.5401 3.04706C28.0038 2.73589 29.3831 2.16374 30.6217 1.38079C30.1525 2.98683 29.1392 4.33189 27.8068 5.1851Z" fill="#B1B1B1"/>
</svg>

<svg xmlns="http://www.w3.org/2000/svg" width="32" height="29" fill="none"><path fill="#B1B1B1" fill-rule="evenodd" d="M27.807 5.185a12.06 12.06 0 0 0 3.687-1.084 13.757 13.757 0 0 1-3.209 3.563c.01.292.02.593.02.894 0 9.084-6.466 19.563-18.288 19.563-3.631 0-7.009-1.134-9.852-3.091.507.06 1.013.09 1.53.09 3.011 0 5.78-1.104 7.984-2.941-2.815-.06-5.188-2.048-6.005-4.778.394.08.798.12 1.21.12.592 0 1.155-.08 1.699-.24-2.937-.633-5.16-3.413-5.16-6.746v-.09a6.162 6.162 0 0 0 2.908.863c-1.726-1.235-2.862-3.342-2.862-5.721 0-1.255.32-2.44.873-3.453C5.513 6.299 10.252 9.03 15.59 9.32a7.133 7.133 0 0 1-.168-1.566c0-3.795 2.88-6.876 6.427-6.876 1.848 0 3.518.833 4.691 2.168a12.512 12.512 0 0 0 4.082-1.666c-.47 1.606-1.483 2.95-2.815 3.804Z" clip-rule="evenodd"/></svg>
